src/assets/icons/weeks,fancy,35.svg

<svg width="48" height="48" viewBox="0 0 48 48" fill="none" xmlns="http://www.w3.org/2000/svg">
<rect opacity="0.2" x="4" y="6" width="40" height="40" rx="4" fill="black"/>
<path d="M14.9256 41.2784C19.4995 41.2784 22.7708 38.7628 22.7608 35.2827C22.7708 32.7472 21.16 30.9375 18.1671 30.5597V30.4006C20.4441 29.9929 22.0151 28.3821 22.0051 26.0952C22.0151 22.8835 19.2012 20.358 14.9853 20.358C10.8091 20.358 7.66708 22.804 7.60742 26.3239H11.7338C11.7836 24.7727 13.2054 23.7685 14.9654 23.7685C16.7054 23.7685 17.8688 24.8224 17.8588 26.3537C17.8688 27.9545 16.5066 29.0384 14.5478 29.0384H12.6486V32.2003H14.5478C16.8546 32.2003 18.2963 33.3537 18.2864 34.9943C18.2963 36.6151 16.9043 37.7287 14.9355 37.7287C13.0364 37.7287 11.6145 36.7344 11.535 35.2429H7.19975C7.26935 38.8026 10.4512 41.2784 14.9256 41.2784ZM33.2931 41.2784C37.8272 41.2784 40.9096 38.3253 40.8997 34.2088C40.9096 30.3111 38.1852 27.5071 34.5162 27.5071C32.7264 27.5071 31.1852 28.2528 30.4693 29.2571H30.35L30.877 24.1562H39.7761V20.6364H27.3272L26.3627 31.375L30.1909 32.0611C30.8173 31.2159 32.0304 30.6889 33.2335 30.6889C35.2818 30.6989 36.7534 32.1804 36.7534 34.3182C36.7534 36.4361 35.3116 37.8977 33.2931 37.8977C31.5829 37.8977 30.2008 36.8239 30.1014 35.2429H25.9252C26.0048 38.7628 29.0772 41.2784 33.2931 41.2784Z" fill="black"/>
<g opacity="0.4">
<path d="M10 4C10 2.89543 10.8954 2 12 2C13.1046 2 14 2.89543 14 4V8C14 9.10457 13.1046 10 12 10C10.8954 10 10 9.10457 10 8V4Z" fill="black"/>
<path d="M34 4C34 2.89543 34.8954 2 36 2C37.1046 2 38 2.89543 38 4V8C38 9.10457 37.1046 10 36 10C34.8954 10 34 9.10457 34 8V4Z" fill="black"/>
</g>
<path fill-rule="evenodd" clip-rule="evenodd" d="M10 6.00869C7.52043 6.04456 6.11466 6.22849 5.17157 7.17157C4 8.34315 4 10.2288 4 14V16H44V14C44 10.2288 44 8.34315 42.8284 7.17157C41.8853 6.22849 40.4796 6.04456 38 6.00869V8C38 9.10457 37.1046 10 36 10C34.8954 10 34 9.10457 34 8V6H14V8C14 9.10457 13.1046 10 12 10C10.8954 10 10 9.10457 10 8V6.00869Z" fill="black"/>
</svg>

<svg xmlns="http://www.w3.org/2000/svg" width="48" height="48" fill="none" viewBox="0 0 48 48">
  <rect width="40" height="40" x="4" y="6" fill="#000" opacity=".2" rx="4"/>
  <path fill="#000" d="M14.926 41.278c4.574 0 7.845-2.515 7.835-5.995.01-2.536-1.601-4.346-4.594-4.723v-.16c2.277-.407 3.848-2.018 3.838-4.305.01-3.211-2.804-5.737-7.02-5.737-4.176 0-7.318 2.446-7.378 5.966h4.127c.05-1.551 1.471-2.556 3.231-2.556 1.74 0 2.904 1.054 2.894 2.586.01 1.6-1.352 2.684-3.311 2.684h-1.9V32.2h1.9c2.307 0 3.748 1.154 3.738 2.794.01 1.621-1.382 2.735-3.35 2.735-1.9 0-3.322-.995-3.401-2.486H7.2c.07 3.56 3.251 6.035 7.726 6.035zm18.367 0c4.534 0 7.617-2.953 7.607-7.07.01-3.897-2.715-6.7-6.384-6.7-1.79 0-3.33.745-4.047 1.75h-.119l.527-5.102h8.9v-3.52h-12.45l-.964 10.739 3.828.686c.626-.845 1.84-1.372 3.043-1.372 2.048.01 3.52 1.491 3.52 3.63 0 2.117-1.442 3.579-3.46 3.579-1.711 0-3.093-1.074-3.193-2.655h-4.176c.08 3.52 3.152 6.035 7.368 6.035z"/>
  <g opacity=".4">
    <path fill="#000" d="M10 4a2 2 0 114 0v4a2 2 0 11-4 0V4zM34 4a2 2 0 114 0v4a2 2 0 11-4 0V4z"/>
  </g>
  <path fill="#000" fill-rule="evenodd" d="M10 6.009c-2.48.036-3.885.22-4.828 1.163C4 8.343 4 10.229 4 14v2h40v-2c0-3.771 0-5.657-1.172-6.828-.943-.944-2.348-1.127-4.828-1.163V8a2 2 0 11-4 0V6H14v2a2 2 0 11-4 0V6.009z" clip-rule="evenodd"/>
</svg>
